images/skills/html-icon.svg

<svg xmlns="http://www.w3.org/2000/svg" width="64" height="64" viewBox="0 0 32 32"><path d="M4.46 28.802L1.892.001h28.216l-2.57 28.797L15.982 32z" fill="#858585"/><path d="M25.337 26.964l2.197-24.608H16v27.197z" fill="#8c8c8c"/><path d="M15.988 5.888H7.142l.953 10.682H16v-3.532h-4.674l-.323-3.617H16V5.888zM16 22.2l-.015.004-3.934-1.062-.25-2.817H8.253l.495 5.546 7.236 2 .016-.005z" fill="#ebebeb"/><path d="M15.988 16.57h4.35l-.4 4.58-3.94 1.063v3.675l7.242-2.007.97-10.845H16zm8.764-9.734l.084-.948h-8.85V9.42h8.532l.07-.794z" fill="#fff"/></svg>

<?xml version="1.0" encoding="UTF-8" standalone="no"?>
<svg
   width="66.654053"
   height="75.590553"
   viewBox="0 0 33.327027 37.795277"
   version="1.1"
   id="svg4"
   sodipodi:docname="html-icon.svg"
   inkscape:version="1.3.2 (091e20e, 2023-11-25, custom)"
   xmlns:inkscape="http://www.inkscape.org/namespaces/inkscape"
   xmlns:sodipodi="http://sodipodi.sourceforge.net/DTD/sodipodi-0.dtd"
   xmlns="http://www.w3.org/2000/svg"
   xmlns:svg="http://www.w3.org/2000/svg">
  <defs
     id="defs4" />
  <sodipodi:namedview
     id="namedview4"
     pagecolor="#ffffff"
     bordercolor="#000000"
     borderopacity="0.25"
     inkscape:showpageshadow="2"
     inkscape:pageopacity="0.0"
     inkscape:pagecheckerboard="0"
     inkscape:deskcolor="#d1d1d1"
     inkscape:zoom="6.4921875"
     inkscape:cx="33.347774"
     inkscape:cy="37.814681"
     inkscape:window-width="1920"
     inkscape:window-height="1009"
     inkscape:window-x="1912"
     inkscape:window-y="-8"
     inkscape:window-maximized="1"
     inkscape:current-layer="svg4" />
  <g
     id="g4"
     transform="matrix(1.1811393,0,0,1.1811393,-2.2347156,-0.00118114)">
    <path
       d="M 4.46,28.802 1.892,0.001 H 30.108 L 27.538,28.798 15.982,32 Z"
       fill="#e44d26"
       id="path1" />
    <path
       d="M 25.337,26.964 27.534,2.356 H 16 v 27.197 z"
       fill="#f16529"
       id="path2" />
    <path
       d="M 15.988,5.888 H 7.142 L 8.095,16.57 H 16 V 13.038 H 11.326 L 11.003,9.421 H 16 V 5.888 Z M 16,22.2 15.985,22.204 12.051,21.142 11.801,18.325 H 8.253 l 0.495,5.546 7.236,2 L 16,25.866 Z"
       fill="#ebebeb"
       id="path3" />
    <path
       d="m 15.988,16.57 h 4.35 l -0.4,4.58 -3.94,1.063 v 3.675 L 23.24,23.881 24.21,13.036 H 16 Z m 8.764,-9.734 0.084,-0.948 h -8.85 V 9.42 h 8.532 l 0.07,-0.794 z"
       fill="#ffffff"
       id="path4" />
  </g>
</svg>
